docs/icons/git.svg

<svg xmlns="http://www.w3.org/2000/svg" xmlns:xlink="http://www.w3.org/1999/xlink" width="30" height="30" fill="none" xmlns:v="https://vecta.io/nano"><defs><path id="A" d="M0 0h30v30H0z"/><path id="B" d="M0 0h21v21H0z"/></defs><g transform="matrix(1 0 0 1 0 0)"><mask id="D" fill="#fff"><use xlink:href="#A"/></mask><g mask="url(#D)"><g transform="matrix(1 0 0 1 4.5 4.5)"><mask id="D" fill="#fff"><use xlink:href="#B"/></mask><g mask="url(#D)"><path fill-rule="evenodd" transform="matrix(1 0 0 1 -.000056 .000127)" d="M16.7 10.02c.55.78.46 1.85-.21 2.53a1.96 1.96 0 0 1-2.53.21c-.79-.55-1.06-1.59-.64-2.45l-2.63-2.63c-.06.03-.12.06-.19.08v5.48a1.96 1.96 0 0 1 1.28 2.19c-.16.94-.98 1.63-1.94 1.63-.95 0-1.77-.69-1.94-1.63-.16-.95.38-1.87 1.29-2.19V7.76a1.94 1.94 0 0 1-1.16-1.1 1.94 1.94 0 0 1 .04-1.6L6.46 3.45.4 9.52c-.26.26-.4.6-.4.96s.14.7.4.95l9.17 9.17c.25.26.59.4.95.4a1.33 1.33 0 0 0 .96-.4l9.12-9.12c.26-.26.4-.6.4-.96s-.14-.7-.4-.96h0L11.44.4c-.26-.26-.6-.4-.96-.4s-.7.14-.96.4L7.39 2.53 9 4.13c.75-.36 1.65-.21 2.24.38s.74 1.49.38 2.24l2.63 2.63a1.97 1.97 0 0 1 2.45.64z" fill="#f05033"/></g></g></g></g></svg>

<svg xmlns="http://www.w3.org/2000/svg" xmlns:xlink="http://www.w3.org/1999/xlink" width="30" height="30" viewBox="0 0 30 30" fill="none"><defs><rect id="path_0" x="0" y="0" width="30" height="30" /><rect id="path_1" x="0" y="0" width="21" height="21" /></defs><g opacity="1" transform="translate(0 0)  rotate(0 15 15)"><mask id="bg-mask" fill="white"><use xlink:href="#path_0"></use></mask><g mask="url(#bg-mask)" ><path id="矩形 1" fill-rule="evenodd"  transform="translate(0 0)  rotate(0 15 15)" opacity="1" d="M0,30L30,30L30,0L0,0L0,30Z " /><g opacity="1" transform="translate(4.5 4.5)  rotate(0 10.5 10.5)"><mask id="bg-mask" fill="white"><use xlink:href="#path_1"></use></mask><g mask="url(#bg-mask)" ><path id="路径 1" fill-rule="evenodd" style="fill:#F05033" transform="translate(-0.000056348248376636434 0.00012740175162456735)  rotate(0 10.500528848248377 10.499544473248374)" opacity="1" d="M16.7,10.02C17.25,10.8 17.16,11.87 16.49,12.55C15.81,13.23 14.74,13.32 13.96,12.76C13.17,12.21 12.9,11.17 13.32,10.31L10.69,7.68C10.63,7.71 10.57,7.74 10.5,7.76L10.5,13.24C11.4,13.56 11.95,14.48 11.78,15.43C11.62,16.37 10.8,17.06 9.84,17.06C8.89,17.06 8.07,16.37 7.9,15.43C7.74,14.48 8.28,13.56 9.19,13.24L9.19,7.76C8.66,7.58 8.24,7.17 8.03,6.66C7.81,6.14 7.83,5.56 8.07,5.06L6.46,3.45L0.4,9.52C0.14,9.78 0,10.12 0,10.48C0,10.84 0.14,11.18 0.4,11.43L9.57,20.6C9.82,20.86 10.16,21 10.52,21C10.88,21 11.23,20.86 11.48,20.6L20.6,11.48C20.86,11.22 21,10.88 21,10.52C21,10.16 20.86,9.82 20.6,9.56L20.6,9.56L11.44,0.4C11.18,0.14 10.84,0 10.48,0C10.12,0 9.78,0.14 9.52,0.4L7.39,2.53L9,4.13C9.75,3.77 10.65,3.92 11.24,4.51C11.83,5.1 11.98,6 11.62,6.75L14.25,9.38C15.11,8.97 16.15,9.24 16.7,10.02Z " /></g></g></g></g></svg>
